X: 1
T:Sean's Jig  "arr. Kent Hiestand (play with The Lost Elf)"
M:6/8
L:1/8
Q:80
C:Traditional Irish
S:Jig
K:HP
{g}cA{d}A{g}cA{d}A|
{g}BGA{g}GAB|
{gcd}c2A2{GAG}A3|  !
{g}Ad{c}d{g}ded|
{g}cA{d}A{g}cA{d}A|
{g}BGA{g}GAB|  !
{g}cde{A}e2d|
{gcd}c2A2{GAG}A3:|
{g}efg{g}ea{g}a|  !
ged{g}cA{d}A|
{g}efg{gef}e2a|
{g}a{g}ag{ag}a3{g}efg{g}ea{g}a|  !
ged{g}cA{d}A|
{g}cde{A}e2d|
{gcd}c2A2{GAG}A3:|  !
